src/img/city-choise-icon.svg

<svg width="21" height="28" viewBox="0 0 21 28" fill="none" xmlns="http://www.w3.org/2000/svg">
<path d="M10.5 0C4.71027 0 -1.10598e-07 4.54902 -1.10598e-07 10.1405C-1.10598e-07 17.0797 9.39647 27.2668 9.79653 27.6971C10.1723 28.1013 10.8284 28.1006 11.2035 27.6971C11.6035 27.2668 21 17.0797 21 10.1405C20.9999 4.54902 16.2897 0 10.5 0ZM10.5 15.2425C7.58704 15.2425 5.21724 12.9537 5.21724 10.1405C5.21724 7.32726 7.5871 5.03858 10.5 5.03858C13.4129 5.03858 15.7827 7.32731 15.7827 10.1406C15.7827 12.9538 13.4129 15.2425 10.5 15.2425Z" fill="#FFBB25"/>
</svg>

<svg width="21" height="28" viewBox="0 0 21 28" fill="none" xmlns="http://www.w3.org/2000/svg"><path d="M10.5 0C4.71 0 0 4.549 0 10.14c0 6.94 9.396 17.127 9.797 17.557a.968.968 0 0 0 1.406 0c.4-.43 9.797-10.617 9.797-17.556C21 4.548 16.29 0 10.5 0zm0 15.242c-2.913 0-5.283-2.288-5.283-5.102 0-2.813 2.37-5.101 5.283-5.101 2.913 0 5.283 2.288 5.283 5.102 0 2.813-2.37 5.101-5.283 5.101z" fill="#FFBB25"/></svg>
